assets/Shopping cart/Flat/shopping_cart_flat.svg

<svg width="32" height="32" viewBox="0 0 32 32" fill="none" xmlns="http://www.w3.org/2000/svg">
<path d="M7.17 21.7566L22.94 23L23.9824 19H24.5182C25.8896 19 27.0125 20.3403 27.0125 21.8852V22C27.0125 23.6075 25.8089 25 24.3779 25H3C2.45344 25 2 25.382 2 25.9562C2 26.5303 2.44718 27 2.99374 27H24.4188C26.943 27 29 24.7557 29 22V21.8852C29 19.1921 26.9926 17 24.5182 17H24.5035L24.5066 16.9884C24.7278 16.9397 24.9 16.7438 24.9 16.5192V16.4808C24.9 16.337 24.8344 16.2097 24.7322 16.1223L27.37 6H5.2C3.44 6 2 7.43242 2 9.25278L2.52 17.7478C2.67 20.2645 5.04 21.5875 7.17 21.7566ZM21.6161 16H20V12H22.6046L21.6161 16ZM22.8518 11H20V8.00704L21.95 8.00936C22.79 8.00936 23.4 8.78525 23.2 9.59099L22.8518 11ZM19 8.00586V11H14.62V8.00065L19 8.00586ZM13.62 7.99946V11H9.02002V7.994L13.62 7.99946ZM8.02002 7.99281V11H4.11139L4 9.1931C4 8.52662 4.54 7.98947 5.21 7.98947L8.02002 7.99281ZM4.17303 12H8.02002V16H4.41961L4.17303 12ZM4.48126 17H8.02002V19.8306L7.34 19.7771C6 19.6676 4.6 18.9017 4.52 17.6284L4.48126 17ZM9.02002 19.9094V17H13.62V20.2716L9.02002 19.9094ZM14.62 20.3504V17H19V20.62C19 20.6457 19.002 20.671 19.0058 20.6957L14.62 20.3504ZM20 20.6002V17H21.3689L20.69 19.7472C20.5958 20.1344 20.3361 20.4392 20 20.6002ZM14.62 12H19V16H14.62V12ZM9.02002 12H13.62V16H9.02002V12Z" fill="#9B9B9B"/>
<path d="M22.8035 23.9707C22.2419 23.839 21.8923 23.2818 22.03 22.7448L26.9145 3.76832C27.0522 3.23134 27.635 2.897 28.1965 3.02871C28.7581 3.16042 29.1077 3.71766 28.97 4.25463L24.0855 23.2311C23.9478 23.7782 23.3756 24.1024 22.8035 23.9707Z" fill="#BEBEBE"/>
<path d="M27 5H29C29.55 5 30 4.55 30 4C30 3.45 29.55 3 29 3H27C26.45 3 26 3.45 26 4C26 4.55 26.45 5 27 5Z" fill="#0084CE"/>
<path d="M5.5 30C6.32843 30 7 29.3284 7 28.5C7 27.6716 6.32843 27 5.5 27C4.67157 27 4 27.6716 4 28.5C4 29.3284 4.67157 30 5.5 30Z" fill="#0084CE"/>
<path d="M23.5 30C24.3284 30 25 29.3284 25 28.5C25 27.6716 24.3284 27 23.5 27C22.6716 27 22 27.6716 22 28.5C22 29.3284 22.6716 30 23.5 30Z" fill="#0084CE"/>
</svg>

<svg xmlns="http://www.w3.org/2000/svg" width="32" height="32" fill="none"><path fill="#9B9B9B" d="M7.17 21.757 22.94 23l1.042-4h.536c1.372 0 2.494 1.34 2.494 2.885V22c0 1.608-1.203 3-2.634 3H3c-.547 0-1 .382-1 .956S2.447 27 2.994 27h21.425C26.943 27 29 24.756 29 22v-.115C29 19.192 26.993 17 24.518 17h-.015l.004-.012a.495.495 0 0 0 .393-.469v-.038a.47.47 0 0 0-.168-.359L27.37 6H5.2C3.44 6 2 7.432 2 9.253l.52 8.495c.15 2.517 2.52 3.84 4.65 4.009ZM21.616 16H20v-4h2.605l-.989 4Zm1.236-5H20V8.007l1.95.002c.84 0 1.45.776 1.25 1.582L22.852 11ZM19 8.006V11h-4.38V8l4.38.006Zm-5.38-.007V11h-4.6V7.994l4.6.005Zm-5.6-.006V11H4.111L4 9.193c0-.666.54-1.204 1.21-1.204l2.81.004ZM4.173 12H8.02v4h-3.6l-.247-4Zm.308 5H8.02v2.83l-.68-.053c-1.34-.11-2.74-.875-2.82-2.149L4.481 17Zm4.539 2.91V17h4.6v3.272l-4.6-.363Zm5.6.44V17H19v3.62c0 .026.002.051.006.076l-4.386-.346Zm5.38.25V17h1.369l-.679 2.747a1.276 1.276 0 0 1-.69.853ZM14.62 12H19v4h-4.38v-4Zm-5.6 0h4.6v4h-4.6v-4Z"/><path fill="#BEBEBE" d="M22.803 23.97c-.561-.131-.91-.688-.773-1.225l4.884-18.977c.138-.537.721-.871 1.282-.74.562.132.912.69.774 1.227L24.086 23.23c-.138.547-.71.871-1.282.74Z"/><path fill="#0084CE" d="M27 5h2c.55 0 1-.45 1-1s-.45-1-1-1h-2c-.55 0-1 .45-1 1s.45 1 1 1ZM5.5 30a1.5 1.5 0 1 0 0-3 1.5 1.5 0 0 0 0 3ZM23.5 30a1.5 1.5 0 1 0 0-3 1.5 1.5 0 0 0 0 3Z"/></svg>
